X: 23076
T: Laughing Minstrel
R: hornpipe
M: 4/4
K: Emajor
(3EDC|:B,GG=G ^GFED|CAAG A2 GA|BcBG EF (3GFE|GFF=F ^F2 (3EDC|
B,GGF GFED|CAAGA2 (3GA^A|BcBG EF (3GFE|1 FECD E2 (3EDC:|2 FECD EGFE||
|:DEFG AGAF|GGGA BEGB|^A=A^AB cF^Ac|B2 (3BFD B,2 (3EDC|
B,GG=G ^GFED|CAAG A2 (3GA^A|BcBG EF (3GFE|1 FECD EGFE:|2 (3FGA (3Bcd e2||

